X:1
T:Rohan
R:air
M:4/4
L:1/8
K:Edor
| z E/2E/2 EG F2 G2 | A2 E6 | z E/2E/2 EG F2 B2 | c2 e6 |
| z B,/2B,/2 E/2E/2E F2 GG/2G/2 | A2 E6 | f2 d2 c3 d | d2 B6|
| z E/2E/2 EG F2 G2 | A2 E6 | z E/2E/2 EG F2 B2 | c2 e6 |
| z B/2B/2 e/2e/2e f2 gg/2g/2 | a2 e6 | f2 d2 c3 d | d2 B6 ||
%| z E/2E/2 EG F2 G2 | A2 E6 | z E/2E/2 EG F2 B2 | c2 e6 |
%| z B,/2B,/2 E/2E/2E F2 GG/2G/2 | A2 E6 | f2 d2 c3 d | d2 B6 |
| z E/2E/2 EG F2 B2 | c2 A6 | z E/2E/2 EG F2 B2 | c2 e4 f2 |aaaaa
| f2 d4 d/2f/2g | a4 e- e/2e/2a/2b/2 | b4 g3-g/2b/2 | b2 d2 c3 d |
| d2 B4 - B/2B/2e/2f/2 | g2 gf/e/ d2 de/f/ | e2 ed/c/ B3 A | B3 B/B/ A3 A/A/ | B8 |





